X: 16990
T: Headford Junction
R: reel
M: 4/4
K: Gmajor
G2 BA BG GG|DG BG AG ED|G2 BA BG GG|de dB AA AB|
G2 BA BG GG|DG BG AG Bd|ee ee ed BG|1 AA BG AG ED:|2 ~A2 BG AB cd||
|:gg ge d2 ed|B2 dB AG Bd|gg ge d2 Bd|eg gg ~a3e|
gg ge d2 ed|B2 dB AG Bd|ee ee ed BG|1 ~A2 BG AB cd:|2 ~A2 BG AG ED||

